X:510
T:Cam Ye Oer Frae France
S:John MacKay, Edinburgh
Z:Nigel Gatherer
M:3/4
L:1/8
K:Em
GE ED E2 | GE EG  F/G/A/F/ | GE ED     E2 | FD DA F/G/A/F/ :|
Eeed e2 | Ee ef ge         | Ee ed/^c/ dB | AF DF AF :| E6 |]
<end>
<start>
